src/assets/template/spritesvg/telegram.svg

<svg width="40" height="40" viewBox="0 0 40 40" fill="none" xmlns="http://www.w3.org/2000/svg">
<g clip-path="url(#clip0)">
<path d="M34.5363 7.98004C34.1699 7.53189 33.621 7.28516 32.9907 7.28516C32.648 7.28516 32.285 7.35725 31.9119 7.49985L6.5175 17.1937C5.16985 17.708 4.98834 18.4798 5.00002 18.894C5.01169 19.3083 5.23668 20.0687 6.61134 20.5061C6.61958 20.5086 6.62782 20.5111 6.63606 20.5134L11.9036 22.0208L14.7522 30.1667C15.1406 31.2772 16.0124 31.9671 17.0278 31.9671C17.6679 31.9671 18.2976 31.6988 18.8487 31.1916L22.1069 28.1917L26.8326 31.9968C26.8331 31.9973 26.8337 31.9975 26.8342 31.998L26.8791 32.0341C26.8832 32.0374 26.8875 32.0408 26.8916 32.044C27.4169 32.4514 27.9903 32.6665 28.5504 32.6668H28.5506C29.6449 32.6668 30.5162 31.8568 30.7701 30.6034L34.9309 10.0581C35.098 9.2334 34.9579 8.49548 34.5363 7.98004ZM13.6657 21.7345L23.8283 16.5427L17.5004 23.2666C17.3967 23.3767 17.3232 23.5115 17.2871 23.6582L16.0669 28.6007L13.6657 21.7345ZM17.6579 29.8985C17.6158 29.9371 17.5734 29.9717 17.5311 30.0035L18.6631 25.4185L20.7224 27.0768L17.6579 29.8985ZM33.2081 9.70901L29.0473 30.2546C29.0072 30.4512 28.8793 30.9087 28.5504 30.9087C28.3878 30.9087 28.1837 30.8202 27.9747 30.6593L22.6198 26.3476C22.6191 26.3469 22.6182 26.3462 22.6173 26.3457L19.431 23.78L28.5819 14.0564C28.8749 13.7451 28.9015 13.2684 28.6449 12.9264C28.3881 12.5845 27.9228 12.4769 27.5421 12.6714L12.4913 20.3605L7.15219 18.8329L32.5388 9.14207C32.7533 9.06013 32.903 9.04297 32.9907 9.04297C33.0444 9.04297 33.1401 9.04938 33.1756 9.09309C33.2223 9.15009 33.2818 9.34441 33.2081 9.70901Z" fill="#C4C4C4"/>
</g>
<rect x="1" y="1" width="38" height="38" stroke="#C4C4C4" stroke-width="2"/>
<defs>
<clipPath id="clip0">
<rect x="5" y="5" width="30" height="30" fill="white"/>
</clipPath>
</defs>
</svg>

<svg width="40" height="40" fill="transparent" xmlns="http://www.w3.org/2000/svg"><g clip-path="url(#clip0)"><path class="svg-fill" d="M34.536 7.98c-.366-.448-.915-.695-1.545-.695-.343 0-.706.072-1.08.215L6.519 17.194c-1.348.514-1.53 1.286-1.518 1.7.012.414.237 1.175 1.611 1.612l.025.007 5.268 1.508 2.848 8.146c.389 1.11 1.26 1.8 2.276 1.8.64 0 1.27-.268 1.82-.775l3.259-3 4.726 3.805.001.001.045.036.013.01c.525.407 1.098.623 1.658.623 1.095 0 1.966-.81 2.22-2.064l4.16-20.545c.168-.825.028-1.563-.394-2.078zm-20.87 13.755l10.162-5.192-6.328 6.724a.877.877 0 00-.213.391l-1.22 4.943-2.401-6.866zm3.992 8.163a1.684 1.684 0 01-.127.105l1.132-4.584 2.06 1.658-3.065 2.821zM33.208 9.71l-4.16 20.546c-.04.196-.169.654-.498.654-.162 0-.366-.089-.575-.25l-5.355-4.311-.003-.002-3.186-2.566 9.15-9.724a.879.879 0 00-1.039-1.385l-15.05 7.69-5.34-1.528 25.387-9.69c.214-.083.364-.1.452-.1.053 0 .15.006.185.05.046.057.106.251.032.616z" fill="#C4C4C4"/></g><path class="svg-stroke" stroke-width="2" d="M1 1h38v38H1z"/><defs><clipPath id="clip0"><path fill="#fff" d="M5 5h30v30H5z"/></clipPath></defs></svg>
